public/assets/Logo_black.svg

<svg fill="none" height="18" viewBox="0 0 104 18" width="104" xmlns="http://www.w3.org/2000/svg"><g fill="#000"><path d="m29.568 14.16c-.6827 0-1.3333-.1067-1.952-.32s-1.1573-.512-1.616-.896-.7947-.8267-1.008-1.328c-.1067-.224-.1067-.432 0-.624.1173-.192.3093-.3147.576-.368.192-.0427.3787-.0107.56.096.192.096.336.2453.432.448.128.2667.336.512.624.736.2987.224.656.4053 1.072.544s.8533.208 1.312.208c.512 0 .9813-.08 1.408-.24.4373-.16.7893-.3893 1.056-.688.2667-.3093.4-.688.4-1.136 0-.5653-.224-1.072-.672-1.52-.4373-.448-1.1627-.72533-2.176-.832-1.3227-.128-2.3627-.51733-3.12-1.168s-1.136-1.456-1.136-2.416c0-.704.1973-1.30133.592-1.792s.928-.864 1.6-1.12c.6827-.256 1.44-.384 2.272-.384.9707 0 1.7653.19733 2.384.592s1.1307.91733 1.536 1.568c.1493.23467.208.45867.176.672-.0213.20267-.1227.36267-.304.48-.2027.128-.4213.15467-.656.08s-.4107-.21333-.528-.416c-.2667-.45867-.6133-.816-1.04-1.072-.416-.256-.9547-.38933-1.616-.4-.7893-.01067-1.4507.13867-1.984.448-.5333.29867-.8.76267-.8 1.392 0 .32.08.62933.24.928.1707.288.4747.53867.912.752.448.21333 1.088.36267 1.92.448 1.2693.128 2.256.51733 2.96 1.168.7147.64 1.072 1.488 1.072 2.544 0 .608-.128 1.136-.384 1.584-.2453.448-.5813.8267-1.008 1.136-.416.2987-.896.5227-1.44.672-.5333.1493-1.088.224-1.664.224zm10.903-.16c-.2347 0-.432-.08-.592-.24s-.24-.3573-.24-.592v-10.128h-3.456c-.224 0-.4107-.06933-.56-.208-.1387-.14933-.208-.336-.208-.56s.0693-.40533.208-.544c.1493-.14933.336-.224.56-.224h8.56c.224 0 .4053.07467.544.224.1493.13867.224.32.224.544s-.0747.41067-.224.56c-.1387.13867-.32.208-.544.208h-3.44v10.128c0 .2347-.08.432-.24.592s-.3573.24-.592.24zm5.9049 0c-.2987 0-.528-.128-.688-.384s-.176-.528-.048-.816l4.496-10.736c.16-.37333.4213-.56.784-.56.384 0 .6453.18667.784.56l4.512 10.768c.1173.2987.096.5707-.064.816-.1494.2347-.3787.352-.688.352-.16 0-.3147-.0427-.464-.128-.1387-.096-.24-.224-.304-.384l-.896-2.24h-5.744l-.912 2.24c-.0747.1707-.1867.2987-.336.384-.1387.0853-.2827.128-.432.128zm2.24-4.128h4.624l-2.288-5.696zm11.138 4.128c-.2347 0-.432-.08-.592-.24s-.24-.3573-.24-.592v-10.832c0-.24533.08-.44267.24-.592.16-.16.3573-.24.592-.24h2.88c.8 0 1.5093.17067 2.128.512.6186.33067 1.0986.78933 1.44 1.376.352.58667.528 1.26933.528 2.048 0 .768-.192 1.44533-.576 2.032-.384.576-.9067 1.01333-1.568 1.312l2.448 3.936c.192.3093.2186.6027.08.88-.1387.2667-.3787.4-.72.4-.3094 0-.5494-.1333-.72-.4l-2.752-4.416c-.096 0-.192 0-.288 0h-2.048v3.984c0 .2347-.08.432-.24.592-.1494.16-.3467.24-.592.24zm.832-6.352h2.048c.7253 0 1.3226-.20267 1.792-.608.4693-.416.704-.94933.704-1.6 0-.704-.2347-1.28-.704-1.728-.4694-.448-1.0667-.672-1.792-.672h-2.048zm12.9414 6.352c-.2347 0-.432-.08-.592-.24s-.24-.3573-.24-.592v-10.128h-3.456c-.224 0-.4107-.06933-.56-.208-.1387-.14933-.208-.336-.208-.56s.0693-.40533.208-.544c.1493-.14933.336-.224.56-.224h8.56c.224 0 .4053.07467.544.224.1493.13867.224.32.224.544s-.0747.41067-.224.56c-.1387.13867-.32.208-.544.208h-3.44v10.128c0 .2347-.08.432-.24.592s-.3574.24-.592.24zm12.9141.256c-1.024 0-1.9307-.1867-2.72-.56-.7894-.384-1.408-.912-1.856-1.584-.4374-.672-.656-1.44-.656-2.304v-7.472c0-.24533.08-.44267.24-.592.16-.16.3573-.24.592-.24.2453 0 .4426.08.592.24.16.14933.24.34667.24.592v7.472c0 .576.1493 1.088.448 1.536.3093.4373.7306.784 1.264 1.04.544.2453 1.1626.368 1.856.368.672 0 1.264-.1227 1.776-.368.5226-.256.928-.6027 1.216-1.04.2986-.448.448-.96.448-1.536v-7.472c0-.24533.08-.44267.24-.592.16-.16.3573-.24.592-.24.2453 0 .4426.08.592.24.1493.14933.224.34667.224.592v7.472c0 .864-.2187 1.632-.656 2.304-.4267.672-1.024 1.2-1.792 1.584-.768.3733-1.648.56-2.64.56zm9.9156-.256c-.2347 0-.432-.08-.592-.24s-.24-.3573-.24-.592v-10.832c0-.24533.08-.44267.24-.592.16-.16.3573-.24.592-.24h3.2c.8 0 1.509.176 2.128.528s1.099.84267 1.44 1.472c.352.61867.528 1.33333.528 2.144 0 .77867-.176 1.472-.528 2.08-.341.608-.821 1.08267-1.44 1.424s-1.328.512-2.128.512h-2.368v3.504c0 .2347-.08.432-.24.592-.1493.16-.3467.24-.592.24zm.832-5.872h2.368c.725 0 1.323-.22933 1.792-.688.469-.46933.704-1.06667.704-1.792 0-.512-.107-.96-.32-1.344-.213-.39467-.507-.704-.88-.928s-.805-.336-1.296-.336h-2.368z"/><path d="m9.5 0 8.2272 13.5h-16.45444z"/></g></svg>

<svg width="104" height="18" viewBox="0 0 104 18" fill="none" xmlns="http://www.w3.org/2000/svg">
<path d="M29.568 14.16C28.8853 14.16 28.2347 14.0533 27.616 13.84C26.9973 13.6267 26.4587 13.328 26 12.944C25.5413 12.56 25.2053 12.1173 24.992 11.616C24.8853 11.392 24.8853 11.184 24.992 10.992C25.1093 10.8 25.3013 10.6773 25.568 10.624C25.76 10.5813 25.9467 10.6133 26.128 10.72C26.32 10.816 26.464 10.9653 26.56 11.168C26.688 11.4347 26.896 11.68 27.184 11.904C27.4827 12.128 27.84 12.3093 28.256 12.448C28.672 12.5867 29.1093 12.656 29.568 12.656C30.08 12.656 30.5493 12.576 30.976 12.416C31.4133 12.256 31.7653 12.0267 32.032 11.728C32.2987 11.4187 32.432 11.04 32.432 10.592C32.432 10.0267 32.208 9.52 31.76 9.072C31.3227 8.624 30.5973 8.34667 29.584 8.24C28.2613 8.112 27.2213 7.72267 26.464 7.072C25.7067 6.42133 25.328 5.616 25.328 4.656C25.328 3.952 25.5253 3.35467 25.92 2.864C26.3147 2.37333 26.848 2 27.52 1.744C28.2027 1.488 28.96 1.36 29.792 1.36C30.7627 1.36 31.5573 1.55733 32.176 1.952C32.7947 2.34667 33.3067 2.86933 33.712 3.52C33.8613 3.75467 33.92 3.97867 33.888 4.192C33.8667 4.39467 33.7653 4.55467 33.584 4.672C33.3813 4.8 33.1627 4.82667 32.928 4.752C32.6933 4.67733 32.5173 4.53867 32.4 4.336C32.1333 3.87733 31.7867 3.52 31.36 3.264C30.944 3.008 30.4053 2.87467 29.744 2.864C28.9547 2.85333 28.2933 3.00267 27.76 3.312C27.2267 3.61067 26.96 4.07467 26.96 4.704C26.96 5.024 27.04 5.33333 27.2 5.632C27.3707 5.92 27.6747 6.17067 28.112 6.384C28.56 6.59733 29.2 6.74667 30.032 6.832C31.3013 6.96 32.288 7.34933 32.992 8C33.7067 8.64 34.064 9.488 34.064 10.544C34.064 11.152 33.936 11.68 33.68 12.128C33.4347 12.576 33.0987 12.9547 32.672 13.264C32.256 13.5627 31.776 13.7867 31.232 13.936C30.6987 14.0853 30.144 14.16 29.568 14.16ZM40.471 14C40.2363 14 40.039 13.92 39.879 13.76C39.719 13.6 39.639 13.4027 39.639 13.168V3.04H36.183C35.959 3.04 35.7723 2.97067 35.623 2.832C35.4843 2.68267 35.415 2.496 35.415 2.272C35.415 2.048 35.4843 1.86667 35.623 1.728C35.7723 1.57867 35.959 1.504 36.183 1.504H44.743C44.967 1.504 45.1483 1.57867 45.287 1.728C45.4363 1.86667 45.511 2.048 45.511 2.272C45.511 2.496 45.4363 2.68267 45.287 2.832C45.1483 2.97067 44.967 3.04 44.743 3.04H41.303V13.168C41.303 13.4027 41.223 13.6 41.063 13.76C40.903 13.92 40.7057 14 40.471 14ZM46.3759 14C46.0772 14 45.8479 13.872 45.6879 13.616C45.5279 13.36 45.5119 13.088 45.6399 12.8L50.1359 2.064C50.2959 1.69067 50.5572 1.504 50.9199 1.504C51.3039 1.504 51.5652 1.69067 51.7039 2.064L56.2159 12.832C56.3332 13.1307 56.3119 13.4027 56.1519 13.648C56.0025 13.8827 55.7732 14 55.4639 14C55.3039 14 55.1492 13.9573 54.9999 13.872C54.8612 13.776 54.7599 13.648 54.6959 13.488L53.7999 11.248H48.0559L47.1439 13.488C47.0692 13.6587 46.9572 13.7867 46.8079 13.872C46.6692 13.9573 46.5252 14 46.3759 14ZM48.6159 9.872H53.2399L50.9519 4.176L48.6159 9.872ZM59.7539 14C59.5192 14 59.3219 13.92 59.1619 13.76C59.0019 13.6 58.9219 13.4027 58.9219 13.168V2.336C58.9219 2.09067 59.0019 1.89333 59.1619 1.744C59.3219 1.584 59.5192 1.504 59.7539 1.504H62.6339C63.4339 1.504 64.1432 1.67467 64.7619 2.016C65.3805 2.34667 65.8605 2.80533 66.2019 3.392C66.5539 3.97867 66.7299 4.66133 66.7299 5.44C66.7299 6.208 66.5379 6.88533 66.1539 7.472C65.7699 8.048 65.2472 8.48533 64.5859 8.784L67.0339 12.72C67.2259 13.0293 67.2525 13.3227 67.1139 13.6C66.9752 13.8667 66.7352 14 66.3939 14C66.0845 14 65.8445 13.8667 65.6739 13.6L62.9219 9.184C62.8259 9.184 62.7299 9.184 62.6339 9.184H60.5859V13.168C60.5859 13.4027 60.5059 13.6 60.3459 13.76C60.1965 13.92 59.9992 14 59.7539 14ZM60.5859 7.648H62.6339C63.3592 7.648 63.9565 7.44533 64.4259 7.04C64.8952 6.624 65.1299 6.09067 65.1299 5.44C65.1299 4.736 64.8952 4.16 64.4259 3.712C63.9565 3.264 63.3592 3.04 62.6339 3.04H60.5859V7.648ZM73.5273 14C73.2926 14 73.0953 13.92 72.9353 13.76C72.7753 13.6 72.6953 13.4027 72.6953 13.168V3.04H69.2393C69.0153 3.04 68.8286 2.97067 68.6793 2.832C68.5406 2.68267 68.4713 2.496 68.4713 2.272C68.4713 2.048 68.5406 1.86667 68.6793 1.728C68.8286 1.57867 69.0153 1.504 69.2393 1.504H77.7993C78.0233 1.504 78.2046 1.57867 78.3433 1.728C78.4926 1.86667 78.5673 2.048 78.5673 2.272C78.5673 2.496 78.4926 2.68267 78.3433 2.832C78.2046 2.97067 78.0233 3.04 77.7993 3.04H74.3593V13.168C74.3593 13.4027 74.2793 13.6 74.1193 13.76C73.9593 13.92 73.7619 14 73.5273 14ZM86.4414 14.256C85.4174 14.256 84.5107 14.0693 83.7214 13.696C82.932 13.312 82.3134 12.784 81.8654 12.112C81.428 11.44 81.2094 10.672 81.2094 9.808V2.336C81.2094 2.09067 81.2894 1.89333 81.4494 1.744C81.6094 1.584 81.8067 1.504 82.0414 1.504C82.2867 1.504 82.484 1.584 82.6334 1.744C82.7934 1.89333 82.8734 2.09067 82.8734 2.336V9.808C82.8734 10.384 83.0227 10.896 83.3214 11.344C83.6307 11.7813 84.052 12.128 84.5854 12.384C85.1294 12.6293 85.748 12.752 86.4414 12.752C87.1134 12.752 87.7054 12.6293 88.2174 12.384C88.74 12.128 89.1454 11.7813 89.4334 11.344C89.732 10.896 89.8814 10.384 89.8814 9.808V2.336C89.8814 2.09067 89.9614 1.89333 90.1214 1.744C90.2814 1.584 90.4787 1.504 90.7134 1.504C90.9587 1.504 91.156 1.584 91.3054 1.744C91.4547 1.89333 91.5294 2.09067 91.5294 2.336V9.808C91.5294 10.672 91.3107 11.44 90.8734 12.112C90.4467 12.784 89.8494 13.312 89.0814 13.696C88.3134 14.0693 87.4334 14.256 86.4414 14.256ZM96.357 14C96.1223 14 95.925 13.92 95.765 13.76C95.605 13.6 95.525 13.4027 95.525 13.168V2.336C95.525 2.09067 95.605 1.89333 95.765 1.744C95.925 1.584 96.1223 1.504 96.357 1.504H99.557C100.357 1.504 101.066 1.68 101.685 2.032C102.304 2.384 102.784 2.87467 103.125 3.504C103.477 4.12267 103.653 4.83733 103.653 5.648C103.653 6.42667 103.477 7.12 103.125 7.728C102.784 8.336 102.304 8.81067 101.685 9.152C101.066 9.49333 100.357 9.664 99.557 9.664H97.189V13.168C97.189 13.4027 97.109 13.6 96.949 13.76C96.7997 13.92 96.6023 14 96.357 14ZM97.189 8.128H99.557C100.282 8.128 100.88 7.89867 101.349 7.44C101.818 6.97067 102.053 6.37333 102.053 5.648C102.053 5.136 101.946 4.688 101.733 4.304C101.52 3.90933 101.226 3.6 100.853 3.376C100.48 3.152 100.048 3.04 99.557 3.04H97.189V8.128Z" fill="black"/>
<path d="M9.5 0L17.7272 13.5H1.27276L9.5 0Z" fill="black"/>
</svg>
